X: 1
T: Hogmanay, The
M: 6/8
L: 1/8
R: jig
K: Dmaj
A |: 
f2 f fgf | e2 d d2 e | f>gf fed | c2 B B3 |c2 c c>dc |
B/c/BA AcB |1 Ace g2 a | g2 f fAd :|2 Ace gfe | d2 d dAd ||
|: f2 f e2 e | d2 d c2 c | B>cB BAB | c3 Ace |g2 g f2 f |
[1 e2 e d2 d | c>dc B<cB | A3 A2 e :|
[2 e2 e d>ed | cBA gfe | d3 dAd ||
